X:107 
T:Jolly Banger (reel) 
B:CRE3.156 (Buailteoir Meidhreach)
F:file ID: cre.3/107jolly_b
N:I've heard this tune played with C sharps in measures
10 and 14.
R:reel
L:1/8
Q:180
M:C
K:G
dc|B2BA GBdB|cBAG FAdc|BGG2 dcAG|(3FED EF GFED|
B3A G2dB|c2AG FAdc|BGG2 dcAG |1 FDEF G2:|2 FDEF GABc||
|:d3f e3d|"10"cA~A2 d2dc|BGG2 dcAG|FDEF GFED|
dcdf e2ed|"14"cA~A2 dedc|BG~G2 dcAG |1 FDEF GABc:|\
[2 FDEF G3 z||

%%%

